svgs/videotranscoder.svg

<svg xmlns="http://www.w3.org/2000/svg" viewBox="0 0 192 192"><path d="M99.177 128.462c.213-1.556.321-3.123.326-4.693a35.927 35.927 0 0 0-.326-4.693l10.192-8.161a2.327 2.327 0 0 0 .571-3.061l-9.622-16.73a2.407 2.407 0 0 0-2.935-1.021l-11.987 4.775a37.682 37.682 0 0 0-8.154-4.734l-1.631-12.772a2.445 2.445 0 0 0-2.406-2.04H53.717a2.448 2.448 0 0 0-2.365 2.04l-1.794 12.772a36.08 36.08 0 0 0-8.154 4.734l-12.027-4.815a2.364 2.364 0 0 0-2.936 1.02l-9.622 16.73a2.41 2.41 0 0 0 .571 3.061l10.193 8.161a36.311 36.311 0 0 0-.367 4.693c.016 1.584.138 3.166.367 4.734l-10.193 8.161a2.453 2.453 0 0 0-.571 3.101l9.622 16.69a2.408 2.408 0 0 0 2.936 1.061l12.027-4.856a35.28 35.28 0 0 0 8.154 4.734l1.794 12.813a2.446 2.446 0 0 0 2.365 1.999h19.285a2.45 2.45 0 0 0 2.405-1.999l1.794-13.14a34.601 34.601 0 0 0 8.154-4.733l11.987 4.733a2.408 2.408 0 0 0 2.935-1.061l9.663-16.69a2.453 2.453 0 0 0-.571-3.101ZM63.38 140.703a16.871 16.871 0 0 1-10.524-3.685 16.906 16.906 0 0 1-4.684-20.538 16.875 16.875 0 0 1 18.964-9.141 16.883 16.883 0 0 1 9.44 5.937 16.907 16.907 0 0 1 3.683 10.534 16.902 16.902 0 0 1-5.03 11.787 16.875 16.875 0 0 1-11.849 4.862Z" fill="none" stroke="#000" stroke-width="12" stroke-linecap="round" stroke-linejoin="round"/><path d="M106.964 134.378h55.082c3.567 0 6.991-1.419 9.513-3.944a13.473 13.473 0 0 0 3.941-9.522V19.835h-29.11l16.063 23.423h-20.018l-16.064-23.423h-16.105l16.105 23.423h-20.019L90.248 19.835H74.184l16.064 23.423H70.229L54.165 19.835h-9.132a13.45 13.45 0 0 0-9.514 3.944 13.477 13.477 0 0 0-3.941 9.522V90.92" fill="none" stroke="#000" stroke-width="12" stroke-linecap="round" stroke-linejoin="round"/></svg>

<svg
    xmlns="http://www.w3.org/2000/svg"
    viewBox="0 0 192 192"
    id="vector">
    <path
        id="path"
        d="M 99.177 128.462 C 99.39 126.906 99.498 125.339 99.503 123.769 C 99.497 122.199 99.388 120.631 99.177 119.076 L 109.369 110.915 C 109.826 110.566 110.136 110.059 110.242 109.494 C 110.347 108.929 110.24 108.345 109.94 107.854 L 100.318 91.124 C 100.029 90.634 99.574 90.262 99.037 90.075 C 98.5 89.889 97.913 89.899 97.383 90.103 L 85.396 94.878 C 82.887 92.965 80.147 91.374 77.242 90.144 L 75.611 77.372 C 75.515 76.803 75.221 76.285 74.78 75.912 C 74.34 75.539 73.782 75.333 73.205 75.332 L 53.717 75.332 C 53.147 75.343 52.599 75.553 52.167 75.925 C 51.735 76.297 51.447 76.809 51.352 77.372 L 49.558 90.144 C 46.645 91.358 43.904 92.95 41.404 94.878 L 29.377 90.063 C 28.847 89.849 28.257 89.835 27.718 90.022 C 27.178 90.21 26.725 90.587 26.441 91.083 L 16.819 107.813 C 16.537 108.309 16.439 108.888 16.544 109.448 C 16.648 110.009 16.948 110.514 17.39 110.874 L 27.583 119.035 C 27.359 120.59 27.237 122.157 27.216 123.728 C 27.232 125.312 27.354 126.894 27.583 128.462 L 17.39 136.623 C 16.945 136.99 16.644 137.502 16.539 138.069 C 16.435 138.637 16.534 139.223 16.819 139.724 L 26.441 156.414 C 26.724 156.911 27.176 157.291 27.714 157.486 C 28.251 157.68 28.841 157.676 29.377 157.475 L 41.404 152.619 C 43.898 154.555 46.641 156.147 49.558 157.353 L 51.352 170.166 C 51.456 170.721 51.747 171.223 52.178 171.588 C 52.609 171.952 53.153 172.156 53.717 172.165 L 73.002 172.165 C 73.573 172.165 74.126 171.966 74.565 171.6 C 75.004 171.235 75.302 170.728 75.407 170.166 L 77.201 157.026 C 80.122 155.828 82.866 154.235 85.355 152.293 L 97.342 157.026 C 97.877 157.227 98.467 157.231 99.005 157.037 C 99.543 156.842 99.994 156.462 100.277 155.965 L 109.94 139.275 C 110.225 138.774 110.324 138.188 110.22 137.62 C 110.116 137.053 109.814 136.541 109.369 136.174 Z M 63.38 140.703 C 59.557 140.703 55.845 139.404 52.856 137.018 C 49.867 134.632 47.774 131.299 46.924 127.569 C 46.073 123.838 46.513 119.927 48.172 116.48 C 49.831 113.032 52.612 110.249 56.056 108.589 C 59.501 106.929 63.408 106.488 67.136 107.339 C 70.863 108.191 74.193 110.285 76.576 113.276 C 78.96 116.268 80.259 119.983 80.259 123.81 C 80.195 128.246 78.387 132.483 75.229 135.597 C 72.072 138.712 67.813 140.459 63.38 140.459 Z"
        fill="none"
        stroke="#000000"
        stroke-width="12"
        stroke-linecap="round"
        stroke-linejoin="round"/>
    <path
        id="path_1"
        d="M 106.964 134.378 L 162.046 134.378 C 165.613 134.378 169.037 132.959 171.559 130.434 C 174.082 127.91 175.5 124.482 175.5 120.912 L 175.5 19.835 L 146.39 19.835 L 162.453 43.258 L 142.435 43.258 L 126.371 19.835 L 110.266 19.835 L 126.371 43.258 L 106.352 43.258 L 90.248 19.835 L 74.184 19.835 L 90.248 43.258 L 70.229 43.258 L 54.165 19.835 L 45.033 19.835 C 41.466 19.835 38.041 21.254 35.519 23.779 C 32.997 26.303 31.578 29.731 31.578 33.301 L 31.578 90.92"
        fill="none"
        stroke="#000000"
        stroke-width="12"
        stroke-linecap="round"
        stroke-linejoin="round"/>
</svg>
